src/icons/svg/sale.svg

<svg t="1603358700631" class="icon" viewBox="0 0 1024 1024" version="1.1" xmlns="http://www.w3.org/2000/svg" p-id="2793" width="200" height="200"><path d="M150.02368 149.952a511.872 511.872 0 0 0 0 724.096A511.936 511.936 0 0 0 955.39968 768 512 512 0 0 0 150.02368 149.952z m405.632 514.624v155.584c0 21.824-17.408 39.168-43.584 39.168-21.824 0-43.52-17.28-43.52-39.168v-155.648H311.43168c-21.76 0-39.232-21.696-39.232-43.456 0-21.824 17.472-43.648 39.232-43.648h156.928V511.936H311.49568c-21.76 0-39.232-17.28-39.232-43.52 0-21.76 17.472-43.648 39.232-43.648h139.52L324.55168 302.784a42.112 42.112 0 0 1 0-60.992 42.24 42.24 0 0 1 61.056 0l130.752 126.4 121.984-122.112a42.368 42.368 0 0 1 61.12 0 42.176 42.176 0 0 1 0 60.992L573.06368 429.184h139.52c21.76 0 39.232 21.824 39.232 43.584 0 21.888-17.472 43.712-39.296 43.712L555.65568 512v65.472h156.864c21.824 0 39.296 17.408 39.296 43.648 0 21.76-17.472 43.392-39.296 43.392l-156.864 0.064z" fill="#fff" p-id="2794"></path></svg>

<svg class="icon" viewBox="0 0 1024 1024" xmlns="http://www.w3.org/2000/svg" width="200" height="200"><path d="M150.024 149.952a511.872 511.872 0 000 724.096A511.936 511.936 0 00955.4 768a512 512 0 00-805.376-618.048zm405.632 514.624V820.16c0 21.824-17.408 39.168-43.584 39.168-21.824 0-43.52-17.28-43.52-39.168V664.512h-157.12c-21.76 0-39.232-21.696-39.232-43.456 0-21.824 17.472-43.648 39.232-43.648H468.36v-65.472H311.496c-21.76 0-39.232-17.28-39.232-43.52 0-21.76 17.472-43.648 39.232-43.648h139.52L324.552 302.784a42.112 42.112 0 010-60.992 42.24 42.24 0 0161.056 0l130.752 126.4L638.344 246.08a42.368 42.368 0 0161.12 0 42.176 42.176 0 010 60.992l-126.4 122.112h139.52c21.76 0 39.232 21.824 39.232 43.584 0 21.888-17.472 43.712-39.296 43.712L555.656 512v65.472H712.52c21.824 0 39.296 17.408 39.296 43.648 0 21.76-17.472 43.392-39.296 43.392l-156.864.064z" fill="#fff"/></svg>
